src/assets/case-studies/tropic/ask-ai/ai-icon-thread.svg

<svg width="16" height="16" viewBox="0 0 16 16" fill="none" xmlns="http://www.w3.org/2000/svg">
<path d="M13 2H3C2.73478 2 2.48043 2.10536 2.29289 2.29289C2.10536 2.48043 2 2.73478 2 3V13C2 13.2652 2.10536 13.5196 2.29289 13.7071C2.48043 13.8946 2.73478 14 3 14H9.79313C9.9245 14.0004 10.0546 13.9747 10.176 13.9244C10.2973 13.8741 10.4075 13.8001 10.5 13.7069L13.7069 10.5C13.8001 10.4075 13.8741 10.2973 13.9244 10.176C13.9747 10.0546 14.0004 9.9245 14 9.79313V3C14 2.73478 13.8946 2.48043 13.7071 2.29289C13.5196 2.10536 13.2652 2 13 2ZM3 3H13V9.5H10C9.86739 9.5 9.74022 9.55268 9.64645 9.64645C9.55268 9.74022 9.5 9.86739 9.5 10V13H3V3ZM12.2931 10.5L10.5 12.2931V10.5H12.2931Z" fill="#292929"/>
</svg>

<svg width="16" height="16" fill="none" xmlns="http://www.w3.org/2000/svg"><path d="M13 2H3a1 1 0 0 0-1 1v10a1 1 0 0 0 1 1h6.793a.992.992 0 0 0 .707-.293l3.207-3.207A.992.992 0 0 0 14 9.793V3a1 1 0 0 0-1-1zM3 3h10v6.5h-3a.5.5 0 0 0-.5.5v3H3V3zm9.293 7.5L10.5 12.293V10.5h1.793z" fill="#292929"/></svg>
